MB/img/svg/close.svg

<svg width="20" height="19" viewBox="0 0 20 19" fill="none" xmlns="http://www.w3.org/2000/svg">
<path d="M12.2028 9.12086L19.6805 2.29979C19.8862 2.11202 19.9997 1.86152 20 1.5944C20 1.32713 19.8865 1.07633 19.6805 0.888859L19.0252 0.291293C18.8192 0.10308 18.5446 0 18.2514 0C17.9587 0 17.6841 0.10308 17.478 0.291293L10.0003 7.11191L2.52228 0.291293C2.31659 0.10308 2.04179 0 1.74878 0C1.4561 0 1.1813 0.10308 0.97561 0.291293L0.32 0.888859C-0.106667 1.27804 -0.106667 1.91106 0.32 2.29979L7.79789 9.12086L0.32 15.9416C0.114146 16.1297 0.000813008 16.3802 0.000813008 16.6473C0.000813008 16.9144 0.114146 17.1649 0.32 17.3529L0.975447 17.9504C1.18114 18.1385 1.4561 18.2417 1.74862 18.2417C2.04163 18.2417 2.31642 18.1385 2.52211 17.9504L10.0002 11.1297L17.4779 17.9504C17.6839 18.1385 17.9585 18.2417 18.2512 18.2417H18.2515C18.5444 18.2417 18.819 18.1385 19.025 17.9504L19.6803 17.3529C19.886 17.1651 19.9995 16.9144 19.9995 16.6473C19.9995 16.3802 19.886 16.1297 19.6803 15.9418L12.2028 9.12086Z" fill="#0A2D1E"/>
</svg>

<svg width="20" height="19" fill="none" xmlns="http://www.w3.org/2000/svg"><path d="M12.203 9.12L19.68 2.3a.95.95 0 00.32-.706.948.948 0 00-.32-.705L19.025.29a1.14 1.14 0 00-.774-.29 1.14 1.14 0 00-.773.291L10 7.111 2.522.292A1.14 1.14 0 001.75 0c-.294 0-.57.103-.774.291L.32.89a.938.938 0 000 1.41l7.478 6.822L.32 15.94a.95.95 0 00-.32.706.95.95 0 00.32.706l.655.597c.206.189.481.292.774.292.293 0 .567-.104.773-.292L10 11.13l7.478 6.82c.206.189.48.292.773.292.293 0 .568-.104.774-.292l.655-.597a.95.95 0 00.32-.706.95.95 0 00-.32-.705L12.203 9.12z" fill="#0A2D1E"/></svg>
